Simply-Blue-Circles/scalable/apps/planetkde.svg

<svg xmlns="http://www.w3.org/2000/svg" width="48" height="48" viewBox="0 0 12.7 12.7"><path style="line-height:normal;text-indent:0;text-align:start;text-decoration-line:none;text-transform:none;marker:none" d="M5.9.07V.1A6.25 6.25 0 0 0 .07 5.9H.06v.83h.01a6.25 6.25 0 0 0 5.83 5.82v.02h.83v-.02a6.25 6.25 0 0 0 5.82-5.82h.01v-.83h-.01A6.25 6.25 0 0 0 6.73.09V.07H5.9zm0 .89v2.33l.83-.1V.96c.85.23 1.6 1.15 2.04 2.45H8.5l1 .26L9 4.3c.11.5.19 1.04.21 1.6h-.79a2.27 2.16 0 0 1 .06.21l.54.63h.2a9.24 9.24 0 0 1-.03.2l.25.28-.28.1A9.24 9.24 0 0 1 9 8.41h-.42l-.47.51-.75-.45a2.27 2.16 0 0 1-.18.08 2.27 2.16 0 0 1-.21.08l-.06.61h1.86c-.45 1.3-1.19 2.22-2.04 2.45V9.44l-.83-.01v2.26c-.86-.23-1.6-1.15-2.05-2.45H5.7l-.1-.6a2.27 2.16 0 0 1-.03-.01 2.27 2.16 0 0 1-.2-.08 2.27 2.16 0 0 1-.2-.1l-.76.46-.36-.5h-.43a9.32 9.32 0 0 1-.2-1.37h-.06L3.4 5.9a9.32 9.32 0 0 1 .22-1.67h.93l.1-.08.13.08h.7l-.03-.83h-1.6C4.3 2.1 5.04 1.19 5.9.96zm-1.93.48c-.4.53-.73 1.2-.98 1.97H1.74a5.45 5.45 0 0 1 2.23-1.97zm4.68 0a5.45 5.45 0 0 1 2.23 1.97H9.63a6.59 6.59 0 0 0-.98-1.97zM6.8 3.6l-.97.1v3.75l.96-.13v-1.6l1.28 1.77 1-.3-1.3-1.7L9.1 3.85l-1.03-.22L6.8 5.26V3.6zm-5.5.64h1.46a9.9 9.9 0 0 0-.2 1.67H.9a5.37 5.37 0 0 1 .4-1.67zm8.54 0h1.47c.21.52.35 1.08.4 1.67h-1.66a9.9 9.9 0 0 0-.21-1.67zm-5.23.28l-.03.01-.38.36c-.01.02-.02.05 0 .07l.43.68c-.08.13-.14.26-.18.4l-.82.17c-.02 0-.04.02-.04.04v.5c0 .03.02.05.04.05l.8.19c.04.16.1.32.19.46l-.46.66v.06l.38.35c.02.02.05.02.07.01l.71-.41c.14.08.3.14.45.18l.17.76c0 .02.02.04.05.04h.53c.02 0 .05-.02.06-.04l.19-.76a2 2 0 0 0 .47-.2l.7.45c.02.01.05 0 .07 0l.37-.36c.02-.02.02-.04.01-.06l-.25-.4-.09.02h-.03l-.38-.53C7.4 7.69 6.88 8 6.3 8c-.85 0-1.54-.65-1.54-1.45 0-.59.37-1.1.9-1.32v-.38l-.27.12h-.01l-.72-.45h-.03zM.9 6.74h1.66c.02.58.1 1.14.2 1.67H1.31a5.37 5.37 0 0 1-.4-1.67zm9.14 0h1.66a5.35 5.35 0 0 1-.4 1.67H9.86a9.9 9.9 0 0 0 .2-1.67zm-8.3 2.5h1.24c.25.77.58 1.44.98 1.97a5.45 5.45 0 0 1-2.23-1.97zm7.88 0h1.25a5.45 5.45 0 0 1-2.23 1.97c.4-.53.74-1.2.98-1.97z" color="#000" font-weight="400" font-family="Andale Mono" overflow="visible" fill="#2c89a0"/></svg>

<?xml version="1.0" encoding="UTF-8" standalone="no"?>
<svg
   xmlns:dc="http://purl.org/dc/elements/1.1/"
   xmlns:cc="http://creativecommons.org/ns#"
   xmlns:rdf="http://www.w3.org/1999/02/22-rdf-syntax-ns#"
   xmlns:svg="http://www.w3.org/2000/svg"
   xmlns="http://www.w3.org/2000/svg"
   xmlns:sodipodi="http://sodipodi.sourceforge.net/DTD/sodipodi-0.dtd"
   xmlns:inkscape="http://www.inkscape.org/namespaces/inkscape"
   width="48"
   height="48"
   viewBox="0 0 12.7 12.7"
   version="1.1"
   id="svg4"
   sodipodi:docname="planetkde.svg"
   inkscape:version="0.92.4 (5da689c313, 2019-01-14)">
  <metadata
     id="metadata10">
    <rdf:RDF>
      <cc:Work
         rdf:about="">
        <dc:format>image/svg+xml</dc:format>
        <dc:type
           rdf:resource="http://purl.org/dc/dcmitype/StillImage" />
        <dc:title></dc:title>
      </cc:Work>
    </rdf:RDF>
  </metadata>
  <defs
     id="defs8" />
  <sodipodi:namedview
     pagecolor="#ffffff"
     bordercolor="#666666"
     borderopacity="1"
     objecttolerance="10"
     gridtolerance="10"
     guidetolerance="10"
     inkscape:pageopacity="0"
     inkscape:pageshadow="2"
     inkscape:window-width="1087"
     inkscape:window-height="480"
     id="namedview6"
     showgrid="false"
     inkscape:zoom="4.9166667"
     inkscape:cx="2.1355932"
     inkscape:cy="24"
     inkscape:window-x="0"
     inkscape:window-y="25"
     inkscape:window-maximized="0"
     inkscape:current-layer="svg4" />
  <path
     style="color:#000000;font-weight:400;line-height:normal;font-family:'Andale Mono';text-indent:0;text-align:start;text-decoration:none;text-decoration-line:none;text-transform:none;overflow:visible;fill:#2c89a0;marker:none"
     d="M 5.9,0.07 V 0.1 A 6.25,6.25 0 0 0 0.07,5.9 H 0.06 v 0.83 h 0.01 a 6.25,6.25 0 0 0 5.83,5.82 v 0.02 h 0.83 v -0.02 a 6.25,6.25 0 0 0 5.82,-5.82 h 0.01 V 5.9 H 12.55 A 6.25,6.25 0 0 0 6.73,0.09 V 0.07 Z m 0,0.89 V 3.29 L 6.73,3.19 V 0.96 c 0.85,0.23 1.6,1.15 2.04,2.45 H 8.5 L 9.5,3.67 9,4.3 C 9.11,4.8 9.19,5.34 9.21,5.9 H 8.42 a 2.27,2.16 0 0 1 0.06,0.21 l 0.54,0.63 h 0.2 A 9.24,9.24 0 0 1 9.19,6.94 L 9.44,7.22 9.16,7.32 A 9.24,9.24 0 0 1 9,8.41 H 8.58 L 8.11,8.92 7.36,8.47 A 2.27,2.16 0 0 1 7.18,8.55 2.27,2.16 0 0 1 6.97,8.63 L 6.91,9.24 h 1.86 c -0.45,1.3 -1.19,2.22 -2.04,2.45 V 9.44 L 5.9,9.43 v 2.26 C 5.04,11.46 4.3,10.54 3.85,9.24 H 5.7 L 5.6,8.64 A 2.27,2.16 0 0 1 5.57,8.63 2.27,2.16 0 0 1 5.37,8.55 2.27,2.16 0 0 1 5.17,8.45 L 4.41,8.91 4.05,8.41 H 3.62 A 9.32,9.32 0 0 1 3.42,7.04 H 3.36 L 3.4,5.9 A 9.32,9.32 0 0 1 3.62,4.23 h 0.93 l 0.1,-0.08 0.13,0.08 h 0.7 L 5.45,3.4 H 3.85 C 4.3,2.1 5.04,1.19 5.9,0.96 Z M 3.97,1.44 C 3.57,1.97 3.24,2.64 2.99,3.41 H 1.74 A 5.45,5.45 0 0 1 3.97,1.44 Z m 4.68,0 a 5.45,5.45 0 0 1 2.23,1.97 H 9.63 A 6.59,6.59 0 0 0 8.65,1.44 Z M 6.8,3.6 5.83,3.7 V 7.45 L 6.79,7.32 v -1.6 l 1.28,1.77 1,-0.3 L 7.77,5.49 9.1,3.85 8.07,3.63 6.8,5.26 Z M 1.3,4.24 H 2.76 A 9.9,9.9 0 0 0 2.56,5.91 H 0.9 A 5.37,5.37 0 0 1 1.3,4.24 Z m 8.54,0 h 1.47 c 0.21,0.52 0.35,1.08 0.4,1.67 H 10.05 A 9.9,9.9 0 0 0 9.84,4.24 Z M 4.61,4.52 4.58,4.53 4.2,4.89 C 4.19,4.91 4.18,4.94 4.2,4.96 L 4.63,5.64 C 4.55,5.77 4.49,5.9 4.45,6.04 L 3.63,6.21 c -0.02,0 -0.04,0.02 -0.04,0.04 v 0.5 c 0,0.03 0.02,0.05 0.04,0.05 l 0.8,0.19 c 0.04,0.16 0.1,0.32 0.19,0.46 L 4.16,8.11 V 8.17 L 4.54,8.52 C 4.56,8.54 4.59,8.54 4.61,8.53 L 5.32,8.12 C 5.46,8.2 5.62,8.26 5.77,8.3 l 0.17,0.76 c 0,0.02 0.02,0.04 0.05,0.04 H 6.52 C 6.54,9.1 6.57,9.08 6.58,9.06 L 6.77,8.3 A 2,2 0 0 0 7.24,8.1 l 0.7,0.45 c 0.02,0.01 0.05,0 0.07,0 L 8.38,8.19 C 8.4,8.17 8.4,8.15 8.39,8.13 L 8.14,7.73 8.05,7.75 H 8.02 L 7.64,7.22 C 7.4,7.69 6.88,8 6.3,8 5.45,8 4.76,7.35 4.76,6.55 4.76,5.96 5.13,5.45 5.66,5.23 V 4.85 L 5.39,4.97 H 5.38 L 4.66,4.52 H 4.63 Z M 0.9,6.74 h 1.66 c 0.02,0.58 0.1,1.14 0.2,1.67 H 1.31 A 5.37,5.37 0 0 1 0.91,6.74 Z m 9.14,0 H 11.7 A 5.35,5.35 0 0 1 11.3,8.41 H 9.86 a 9.9,9.9 0 0 0 0.2,-1.67 z m -8.3,2.5 h 1.24 c 0.25,0.77 0.58,1.44 0.98,1.97 A 5.45,5.45 0 0 1 1.73,9.24 Z m 7.88,0 h 1.25 a 5.45,5.45 0 0 1 -2.23,1.97 c 0.4,-0.53 0.74,-1.2 0.98,-1.97 z"
     font-weight="400"
     overflow="visible"
     id="path2"
     inkscape:connector-curvature="0" />
</svg>
